X:822
T:Rory MacNab
R:Reel
B:The Athole Collection
M:C|
L:1/8
K:E Minor
e|B2 EG/A/ BGEG|AFDF dFDF|BGEG efba|gef^d e/e/e e:|
B|egfe B/B/B eB|defe d/d/d fd|egfe dBAF|GBAF E/E/E EB|
egfe B/B/B eB|defe d/d/d fd|egfg efde|BdAF E/E/E ~E||

